X: 1302
T: The Cameronian Rant.   a Reel.
%R: reel
B: Niel Gow & Sons "Complete Repository" v.1 p.30 #2
Z: 2021 John Chambers <jc:trillian.mit.edu>
N: Unnecessary flats (on B notes) ignored in bars 3, 15.
M: C
L: 1/8
K: F
% - - - - - - - - - -
% %continueall
% Voice 1 formatted for compactness and proofreading.
V: 1 staves=2
f !segno!|\
c>F F/F/F cFAF | cF {Fc}f/f/f Tc2Ac | BG G/G/G BGAG | BG G/G/G Tc2A :| G | Ff-f>g fdTcA | Ff-f>g fdTcA |
Gg-g>a gfed | Tg>(fga) gfed || cf-f>g fdTcA | FAcf {f}e2cf | (e/f/g) df (e/f/g) de | faga fcd |: f |
!f!cFdF cFAF | c>F {Fc}f/f/f ~c2Ad | BGdG BGAG | B>G G/G/G ~c2A :| G | Ff-f>g fdTcA | Ff-f>g fdTcA |
Gg-g>a {a}gfed | {a}gfga fgdf || cf-f>g fdTcA | FAcf {f}e2cf | (e/f/g) df (e/f/g) de | faga fcdf !segno!|]
% - - - - - - - - - -
% Voice 2 preserves the book's staff layout.
V: 2 clef=bass middle=d
z !segno!| f2f2 f2f2 | f2f2 f2f2 | g2g2 g2g2 | g2g2 e2f :| z | f2f2 f2f2 | f2f2 f2f2 |
g2g2 g2g2 | g2g2 g2g2 || f2f2 f2f2 | f2f2 c2f2 | g2g2 g2g2 | f2f2 [f2a2][fa] |: z |
a2f2 f2f2 | f2f2 f2f2 | g2g2 g2g2 | g2g2 e2f :| z | f2f2 f2f2 | a2f2 f2f2 |
g2g2 g2g2 | g2g2 g2g2 || f2f2 f2f2 | f2f2 c2f2 | g2g2 g2e2 | f2f2 [f2a2][f2b2] !segno!|]


